Newaita-dark/actions/16/zoom-fit-width.svg

<?xml version="1.0" encoding="UTF-8"?>
<svg xmlns="http://www.w3.org/2000/svg" xmlns:xlink="http://www.w3.org/1999/xlink" width="16pt" height="16pt" viewBox="0 0 16 16" version="1.1">
<g id="surface1">
<path style=" stroke:none;fill-rule:nonzero;fill:rgb(74.117649%,74.117649%,74.117649%);fill-opacity:1;" d="M 5.292969 4.753906 C 4.925781 4.753906 4.628906 5.050781 4.628906 5.417969 L 4.628906 10.710938 C 4.628906 11.074219 4.925781 11.371094 5.292969 11.371094 L 10.585938 11.371094 C 10.949219 11.371094 11.246094 11.074219 11.246094 10.710938 L 11.246094 5.417969 C 11.246094 5.050781 10.949219 4.753906 10.585938 4.753906 Z M 6.117188 5.746094 L 9.757812 5.746094 C 10.03125 5.746094 10.253906 5.96875 10.253906 6.242188 L 10.253906 9.882812 C 10.253906 10.15625 10.03125 10.378906 9.757812 10.378906 L 6.117188 10.378906 C 5.84375 10.378906 5.621094 10.15625 5.621094 9.882812 L 5.621094 6.242188 C 5.621094 5.96875 5.84375 5.746094 6.117188 5.746094 Z M 6.117188 5.746094 "/>
<path style=" stroke:none;fill-rule:evenodd;fill:rgb(74.117649%,74.117649%,74.117649%);fill-opacity:1;" d="M 0.660156 8.0625 C 0.664062 8.261719 0.753906 8.453125 0.910156 8.578125 L 2.5625 9.898438 C 2.761719 10.058594 3.035156 10.089844 3.261719 9.980469 C 3.492188 9.871094 3.636719 9.636719 3.636719 9.382812 L 3.636719 6.738281 C 3.636719 6.484375 3.492188 6.25 3.261719 6.140625 C 3.035156 6.03125 2.761719 6.0625 2.5625 6.222656 L 0.910156 7.542969 C 0.753906 7.671875 0.660156 7.863281 0.660156 8.0625 Z M 0.660156 8.0625 "/>
<path style=" stroke:none;fill-rule:evenodd;fill:rgb(74.117649%,74.117649%,74.117649%);fill-opacity:1;" d="M 15.214844 8.0625 C 15.214844 8.261719 15.121094 8.453125 14.964844 8.578125 L 13.3125 9.898438 C 13.113281 10.058594 12.84375 10.089844 12.613281 9.980469 C 12.382812 9.871094 12.238281 9.636719 12.238281 9.382812 L 12.238281 6.738281 C 12.238281 6.484375 12.382812 6.25 12.613281 6.140625 C 12.84375 6.03125 13.113281 6.0625 13.3125 6.222656 L 14.964844 7.542969 C 15.125 7.671875 15.214844 7.863281 15.214844 8.0625 Z M 15.214844 8.0625 "/>
<path style=" stroke:none;fill-rule:nonzero;fill:rgb(14.901961%,77.64706%,85.490197%);fill-opacity:0.996078;" d="M 1.984375 0.785156 C 1.25 0.785156 0.660156 1.375 0.660156 2.109375 L 0.660156 4.09375 C 0.660156 4.277344 0.878906 4.425781 1.148438 4.425781 L 1.167969 4.425781 C 1.4375 4.425781 1.652344 4.277344 1.652344 4.09375 L 1.652344 2.441406 C 1.652344 2.074219 1.949219 1.777344 2.316406 1.777344 L 3.96875 1.777344 C 4.152344 1.777344 4.300781 1.558594 4.300781 1.28125 C 4.300781 1.007812 4.152344 0.785156 3.96875 0.785156 Z M 11.90625 0.785156 C 11.722656 0.785156 11.578125 1.007812 11.578125 1.28125 C 11.578125 1.558594 11.722656 1.777344 11.90625 1.777344 L 13.5625 1.777344 C 13.925781 1.777344 14.222656 2.074219 14.222656 2.441406 L 14.222656 4.09375 C 14.222656 4.277344 14.445312 4.425781 14.71875 4.425781 C 14.992188 4.425781 15.214844 4.277344 15.214844 4.09375 L 15.214844 2.109375 C 15.214844 1.375 14.625 0.785156 13.890625 0.785156 Z M 1.148438 11.703125 C 0.878906 11.703125 0.660156 11.847656 0.660156 12.03125 L 0.660156 14.015625 C 0.660156 14.75 1.25 15.339844 1.984375 15.339844 L 3.96875 15.339844 C 4.152344 15.339844 4.300781 15.117188 4.300781 14.84375 C 4.300781 14.570312 4.152344 14.347656 3.96875 14.347656 L 2.316406 14.347656 C 1.949219 14.347656 1.652344 14.050781 1.652344 13.6875 L 1.652344 12.03125 C 1.652344 11.847656 1.4375 11.703125 1.167969 11.703125 Z M 14.71875 11.703125 C 14.445312 11.703125 14.222656 11.847656 14.222656 12.03125 L 14.222656 13.6875 C 14.222656 14.050781 13.925781 14.347656 13.5625 14.347656 L 11.90625 14.347656 C 11.722656 14.347656 11.578125 14.570312 11.578125 14.84375 C 11.578125 15.117188 11.722656 15.339844 11.90625 15.339844 L 13.890625 15.339844 C 14.625 15.339844 15.214844 14.75 15.214844 14.015625 L 15.214844 12.03125 C 15.214844 11.847656 14.992188 11.703125 14.71875 11.703125 Z M 14.71875 11.703125 "/>
</g>
</svg>

<svg xmlns="http://www.w3.org/2000/svg" width="16pt" height="16pt" viewBox="0 0 16 16"><path d="M5.293 4.754a.664.664 0 0 0-.664.664v5.293c0 .363.297.66.664.66h5.293c.363 0 .66-.297.66-.66V5.418a.663.663 0 0 0-.66-.664zm.824.992h3.64c.274 0 .497.223.497.496v3.64a.497.497 0 0 1-.496.497h-3.64a.497.497 0 0 1-.497-.496v-3.64c0-.274.223-.497.496-.497zm0 0" fill="#bdbdbd"/><path d="M.66 8.063c.004.199.094.39.25.515l1.652 1.32a.66.66 0 0 0 1.075-.515V6.738a.661.661 0 0 0-1.075-.515L.91 7.543a.679.679 0 0 0-.25.52zm0 0M15.215 8.063c0 .199-.094.39-.25.515l-1.652 1.32a.66.66 0 0 1-1.075-.515V6.738a.661.661 0 0 1 1.075-.515l1.652 1.32c.16.129.25.32.25.52zm0 0" fill-rule="evenodd" fill="#bdbdbd"/><path d="M1.984.785A1.32 1.32 0 0 0 .66 2.11v1.985c0 .183.219.332.488.332h.02c.27 0 .484-.149.484-.332V2.44c0-.367.297-.664.664-.664H3.97c.183 0 .332-.218.332-.496 0-.273-.149-.496-.332-.496zm9.922 0c-.183 0-.328.223-.328.496 0 .278.145.496.328.496h1.656c.364 0 .66.297.66.664v1.653c0 .183.223.332.497.332.273 0 .496-.149.496-.332V2.109A1.32 1.32 0 0 0 13.89.785zM1.148 11.703c-.27 0-.488.145-.488.328v1.985c0 .734.59 1.324 1.324 1.324H3.97c.183 0 .332-.223.332-.496 0-.274-.149-.496-.332-.496H2.316a.663.663 0 0 1-.664-.66V12.03c0-.183-.214-.328-.484-.328zm13.57 0c-.273 0-.495.145-.495.328v1.656c0 .364-.297.66-.66.66h-1.657c-.183 0-.328.223-.328.497 0 .273.145.496.328.496h1.985a1.32 1.32 0 0 0 1.324-1.324V12.03c0-.183-.223-.328-.496-.328zm0 0" fill="#26c6da" fill-opacity=".996"/></svg>
